public/svgs/light/circle-arrow-right.svg

<svg xmlns="http://www.w3.org/2000/svg" viewBox="0 0 512 512"><!-- Font Awesome Pro 6.0.0-alpha2 by @fontawesome - https://fontawesome.com License - https://fontawesome.com/license (Commercial License) --><path d="M260.688 171.312L329.375 240H144C135.156 240 128 247.156 128 256S135.156 272 144 272H329.375L260.688 340.688C254.438 346.938 254.438 357.063 260.688 363.312S277.063 369.562 283.312 363.312L379.312 267.312C382.438 264.188 384 260.094 384 256S382.438 247.812 379.312 244.688L283.312 148.688C277.062 142.438 266.937 142.438 260.688 148.688S254.438 165.062 260.688 171.312ZM16 256C16 388.549 123.451 496 256 496S496 388.549 496 256S388.549 16 256 16S16 123.451 16 256ZM464 256C464 370.691 370.691 464 256 464S48 370.691 48 256S141.309 48 256 48S464 141.309 464 256Z"/></svg>

<svg xmlns="http://www.w3.org/2000/svg" viewBox="0 0 512 512"><!--! Font Awesome Pro 6.5.1 by @fontawesome - https://fontawesome.com License - https://fontawesome.com/license (Commercial License) Copyright 2023 Fonticons, Inc. --><path d="M480 256A224 224 0 1 1 32 256a224 224 0 1 1 448 0zM0 256a256 256 0 1 0 512 0A256 256 0 1 0 0 256zM283.3 363.3l96-96c6.2-6.2 6.2-16.4 0-22.6l-96-96c-6.2-6.2-16.4-6.2-22.6 0s-6.2 16.4 0 22.6L329.4 240 144 240c-8.8 0-16 7.2-16 16s7.2 16 16 16l185.4 0-68.7 68.7c-6.2 6.2-6.2 16.4 0 22.6s16.4 6.2 22.6 0z"/></svg>
